X: 40379
T: Tom Hackett's Dream
R: jig
M: 6/8
K: Gmajor
|:B3 GBd|ecc Gce|dBG dBG|FAA ABc|
B3 GBd|ecc Gce|dBG cAF|AGG G3:|
|:B2d gdB|c2e gdc|B2d gdB|A2g fdc|
B2d gdB|c2e gdc|B3 cAF|AGG G3:|

